src/assets/img/bottomTabBar/setting_tab.svg

<svg fill="none" height="24" viewBox="0 0 24 24" width="24" xmlns="http://www.w3.org/2000/svg"><g stroke="#fff" stroke-linecap="round" stroke-linejoin="round" stroke-width="1.5"><path d="m12 16.5c2.4853 0 4.5-2.0147 4.5-4.5 0-2.48528-2.0147-4.5-4.5-4.5-2.48528 0-4.5 2.01472-4.5 4.5 0 2.4853 2.01472 4.5 4.5 4.5z"/><path d="m17.2182 6.10177c.2402.21266.4673.43971.6799.67989l2.5615.36577c.4154.72332.7357 1.49724.9529 2.30258l-1.552 2.06919s.0195.6412 0 .9614l1.5526 2.0699c-.2177.8052-.5385 1.5789-.9544 2.3019l-2.5606.3658s-.4396.4672-.6797.6798l-.3658 2.5615c-.7233.4154-1.4972.7356-2.3026.9528l-2.0691-1.5519c-.3202.0195-.6413.0195-.9615 0l-2.06984 1.5526c-.80519-.2177-1.5789-.5385-2.30194-.9544l-.3657-2.5605c-.24018-.2126-.46723-.4397-.67989-.6798l-2.56147-.3658c-.41539-.7233-.73565-1.4973-.95285-2.3026l1.55198-2.0692s-.01952-.6412-.00006-.9614l-1.55259-2.06986c.21774-.80519.53853-1.5789.9544-2.30194l2.56045-.3657c.21266-.24019.43971-.46723.67989-.67989l.36577-2.56147c.72332-.41539 1.49725-.73565 2.30258-.95285l2.06907 1.55192c.3202-.01946.6413-.01946.9615 0l2.0699-1.5526c.8052.21775 1.5789.53854 2.3019.95441z"/></g></svg>

<svg width="24" height="24" viewBox="0 0 24 24" fill="none" xmlns="http://www.w3.org/2000/svg">
<path d="M12 16.5C14.4853 16.5 16.5 14.4853 16.5 12C16.5 9.51472 14.4853 7.5 12 7.5C9.51472 7.5 7.5 9.51472 7.5 12C7.5 14.4853 9.51472 16.5 12 16.5Z" stroke="white" stroke-width="1.5" stroke-linecap="round" stroke-linejoin="round"/>
<path d="M17.2182 6.10177C17.4584 6.31443 17.6855 6.54148 17.8981 6.78166L20.4596 7.14743C20.875 7.87075 21.1953 8.64467 21.4125 9.45001L19.8605 11.5192C19.8605 11.5192 19.88 12.1604 19.8605 12.4806L21.4131 14.5505C21.1954 15.3557 20.8746 16.1294 20.4587 16.8524L17.8981 17.2182C17.8981 17.2182 17.4585 17.6854 17.2184 17.898L16.8526 20.4595C16.1293 20.8749 15.3554 21.1951 14.55 21.4123L12.4809 19.8604C12.1607 19.8799 11.8396 19.8799 11.5194 19.8604L9.44956 21.413C8.64437 21.1953 7.87066 20.8745 7.14762 20.4586L6.78192 17.8981C6.54174 17.6855 6.31469 17.4584 6.10203 17.2183L3.54056 16.8525C3.12517 16.1292 2.80491 15.3552 2.58771 14.5499L4.13969 12.4807C4.13969 12.4807 4.12017 11.8395 4.13963 11.5193L2.58704 9.44944C2.80478 8.64425 3.12557 7.87054 3.54144 7.1475L6.10189 6.7818C6.31455 6.54161 6.5416 6.31457 6.78178 6.10191L7.14755 3.54044C7.87087 3.12505 8.6448 2.80479 9.45013 2.58759L11.5192 4.13951C11.8394 4.12005 12.1605 4.12005 12.4807 4.13951L14.5506 2.58691C15.3558 2.80466 16.1295 3.12545 16.8525 3.54132L17.2182 6.10177Z" stroke="white" stroke-width="1.5" stroke-linecap="round" stroke-linejoin="round"/>
</svg>
